X:1
T:Title
%%score { 1 | 2 }
L:1/8
Q:1/4=113
M:6/8
K:D
V:1 treble nm="Grand Piano"
V:2 bass 
V:1
 [FA]2 [FA] [DF]2 [EG] | [FA]2 [FA] [Fd]2 [Fc] | [GB]3 [Gd]3 | [FA]6 | [EG]2 [EG] [EG]2 [CE] | %5
w: Warren~W.~Bentley * * *|||||
 F2 F F2 D | E3 B3 | [CA]6 | F2 F F2 E | D2 F [FA]2 [Fd] | e3 d3 | B6 | c2 c B2 A | %13
w: ||||||||
 [FA]2 [Fd] [A,DF]2 [A,FA] | [A,EG]3[K:bass] [G,CE]3 | [F,D]6 | [CEG]2 [DF] [A,CE]3 | A2 G F3 | %18
w: |||||
 B2 B [^Ge]2 [Gd] | c6 | [Fd]2 [Fd] [Gc]2 [GB] | [FA]2 F D2 G | F3 [CE]3 | D6 |] %24
w: ||||||
V:2
 [D,D]2 [D,D] [D,A,]2 [D,G,] | [D,D]2 [D,D] [D,A,]2 [D,D] | [G,D]3 [D,B,]3 | [D,D]6 | %4
 [A,,A,]2 [A,,A,] [A,,A,]2 [A,,A,] | [D,A,D]2 [D,A,D] [D,A,D]2 F, | [E,^G,D]3 [E,G,D]3 | [A,,A,]6 | %8
 [D,A,D]2 [D,A,D] [D,A,D]2 [D,G,C] | [D,F,]2 [D,A,D] [D,D]2 [D,A,] | [G,B,G]3 [G,B,G]3 | [G,DG]6 | %12
 [A,EG]2 [A,EG] [A,CG]2 [A,CG] | [D,D]2 [D,D] D,2 D, | A,,3 A,,3 | D,6 | A,,2 A,, A,,3 | %17
 [F,A,D]2 [E,A,C] [D,A,D]3 | [G,D]2 [G,DG][K:bass] [E,D]2 [E,B,] | [A,G]6 | %20
 [D,A,]2 [D,D] [D,D]2 [D,C] | [D,D]2 [D,A,D] [F,A,]2 [G,B,E] | [A,D]3 [A,,G,]3 | [D,F,]6 |] %24

